src/assets/dark/IconUsersInactive.svg

<svg width="44" height="44" viewBox="0 0 44 44" fill="none" xmlns="http://www.w3.org/2000/svg">
<path fill-rule="evenodd" clip-rule="evenodd" d="M21.9688 43.5C33.8429 43.5 43.4688 33.8741 43.4688 22C43.4688 10.1259 33.8429 0.5 21.9688 0.5C10.0946 0.5 0.46875 10.1259 0.46875 22C0.46875 33.8741 10.0946 43.5 21.9688 43.5Z" fill="url(#paint0_linear)"/>
<path fill-rule="evenodd" clip-rule="evenodd" d="M18.6354 26.2702C18.5907 21.3776 20.868 18.6633 25.4673 18.1273C26.463 18.1273 26.3699 18.1278 27.5731 18.127L29.6905 18.1273C34.2092 18.5949 36.4685 21.3656 36.4685 26.4396C31.8948 26.4125 26.103 26.4125 19.0931 26.4396L18.6354 26.2702Z" fill="#7465BD" fill-opacity="0.8"/>
<path d="M27.5717 16.9218C29.6212 16.9218 31.2826 15.2603 31.2826 13.2109C31.2826 11.1614 29.6212 9.5 27.5717 9.5C25.5223 9.5 23.8608 11.1614 23.8608 13.2109C23.8608 15.2603 25.5223 16.9218 27.5717 16.9218Z" fill="#7465BD" fill-opacity="0.8"/>
<path fill-rule="evenodd" clip-rule="evenodd" d="M8.49112 29.9814C8.44643 25.0888 10.7237 22.3745 15.323 21.8384C15.8272 21.8381 16.0888 21.8374 17.4035 21.8382L19.5462 21.8384C24.0649 22.306 26.3242 25.0768 26.3242 30.1507C21.7506 30.1237 15.9587 30.1237 8.94882 30.1507L8.49112 29.9814Z" fill="#BDBAD4"/>
<path d="M17.4072 20.6327C19.4566 20.6327 21.118 18.9713 21.118 16.9218C21.118 14.8724 19.4566 13.2109 17.4072 13.2109C15.3577 13.2109 13.6963 14.8724 13.6963 16.9218C13.6963 18.9713 15.3577 20.6327 17.4072 20.6327Z" fill="#BDBAD4"/>
<defs>
<linearGradient id="paint0_linear" x1="0.468751" y1="9.17608" x2="45.3151" y2="40.906" gradientUnits="userSpaceOnUse">
<stop stop-color="#3B3381"/>
<stop offset="1" stop-color="#322773"/>
</linearGradient>
</defs>
</svg>

<svg width="44" height="44" fill="none" xmlns="http://www.w3.org/2000/svg"><path fill-rule="evenodd" clip-rule="evenodd" d="M21.969 43.5c11.874 0 21.5-9.626 21.5-21.5S33.843.5 21.969.5.469 10.126.469 22s9.626 21.5 21.5 21.5z" fill="url(#paint0_linear)"/><path fill-rule="evenodd" clip-rule="evenodd" d="M18.635 26.27c-.044-4.892 2.233-7.607 6.832-8.143h4.223c4.52.468 6.778 3.239 6.778 8.313a1836.21 1836.21 0 00-17.375 0l-.458-.17z" fill="#7465BD" fill-opacity=".8"/><path d="M27.572 16.922a3.71 3.71 0 100-7.422 3.71 3.71 0 000 7.422z" fill="#7465BD" fill-opacity=".8"/><path fill-rule="evenodd" clip-rule="evenodd" d="M8.491 29.981c-.045-4.892 2.233-7.607 6.832-8.143h4.223c4.519.468 6.778 3.239 6.778 8.313-4.573-.027-10.365-.027-17.375 0l-.458-.17z" fill="#BDBAD4"/><path d="M17.407 20.633a3.71 3.71 0 100-7.422 3.71 3.71 0 000 7.422z" fill="#BDBAD4"/><defs><linearGradient id="paint0_linear" x1=".469" y1="9.176" x2="45.315" y2="40.906" gradientUnits="userSpaceOnUse"><stop stop-color="#3B3381"/><stop offset="1" stop-color="#322773"/></linearGradient></defs></svg>
